!!! OTL: Literature26
!!! Chapter: 5
!!! Section: I
!!! Page: 350
!!! Mode: 
!!! Encoder: DJB
**kern
*staff1
*I"Piano
=1-
*clefG2
*k[]
*C:
*M2/4
4r
8r
8g/
=2
8c/L
8e/J
8e/L
8g/J
=3
8g\L
8ee\J
16ee\LL
16dd\
16cc\
16a\JJ
=4
8g/L
8cc/J
8cc/L
8e/J
=5
4.d/
8g/
=6
8c/L
8e/J
8e/L
8g/J
=7
8g\L
8ee\J
16ee\LL
16dd\
16cc\
16a\JJ
=8
8g/L
8cc/J
8.dd\L
16dd\Jk
=9
4.cc\
8g/
=10
!!linebreak:original
8.a/L
16a/Jk
8a/L
8cc/J
=11
8.g/L
16a/Jk
16g/LL
16f/
16e/
16f/JJ
=12
8g/L
8cc/J
8cc/L
8e/J
=13
4.d/
8g/
=14
8c/L
8e/J
8e/L
8g/J
=15
8g\L
8ee\J
16ee\LL
16dd\
16cc\
16a\JJ
=16
8g/L
8cc/J
8.dd\L
16dd\Jk
=17
4.cc\
8r
==
*-
